!!!!SEGMENT: pl-cz--iii-689--004_volckmer-augustin--stabat-mater-lswieta-matko.krn
!!!cenid: 17xx:1223
!!!COM: Volckmer, Augustin
!!!COM-rismID:
!!!CDT: 1755-~1820
!!!CNT:
!!!OPR: Stabat Mater
!!!OTL: Święta matko
!!!OMV: 004
!!!PDT:
!!!AGN: Sacred
!!!SMS-siglum: PL-CZ
!!!SMS-shelfmark: III-689
!!!SMS-shelfwork: 001-004 M
!!!SMS-variant:
!!!SMS-altvar:
!!!NIFC-rismSourceID: 300001407
!!!NIFC-islandoraID: pl-cz:40317
!!!URL-pdf-islandora: https://repozytorium.nifc.pl/islandora/object/pl-cz%3A40317/datastream/PDF/view
!!!URL-scan:
!!!ONB-nifc: UWAGA: części Stabat Mater: Stała Matka Boleściwa, O jak smutna i strapiona, Widziała Kochanka swego, Święta matko, Pragnę stać pod krzyżem, Niech gorzką śmierć, Daj niech rany, Ze wszech Panien, Kiedy ciało
!!!AIN: 1 alto 1 bass 2 cor 1 fagot 2 flt 2 oboe 1 organ 1 soprn 1 tenor 1 viola 2 violn
!!!key:
**kern	**kern	**dynam	**kern	**dynam	**kern	**dynam	**kern	**text	**kern	**text	**kern	**text	**kern	**text	**kern	**kern	**kern	**kern	**kern	**kern	**dynam	**kern
*	*group4	*	*group4	*	*group4	*	*group3	*	*group3	*	*group3	*	*group3	*	*group2	*group2	*group1	*group1	*group1	*group1	*	*group1
*part15	*part14	*part14	*part13	*part13	*part12	*part12	*part11	*part11	*part10	*part10	*part9	*part9	*part8	*part8	*part7	*part6	*part5	*part4	*part3	*part2	*part2	*part1
*staff15	*staff14	*	*staff13	*	*staff12	*	*staff11	*staff11	*staff10	*staff10	*staff9	*staff9	*staff8	*staff8	*staff7	*staff6	*staff5	*staff4	*staff3	*staff2	*	*staff1
*I"Fundamento !	*I"Alto Viola Oblg per expreſsivo.	*	*I"Violino Secundo.	*	*I"Violino Primo .	*	*I"Baſso.	*	*I"Tenore.	*	*I"Alto.	*	*I"Canto.	*	*I"Cors de Caſse Secondo in Dis.	*I"Cors de Caſse Primo in Dis.	*I"Fagotto	*I"Haubois Secunda.	*I"Haubois Primo	*I"Flauto Secondo.	*	*I"Flauto Primo.
*I'fund	*I'a-vla	*	*I'vl 2	*	*I'vl 1	*	*I'B	*	*I'T	*	*I'A	*	*I'S	*	*I'cor 2	*I'cor 1	*I'fg	*I'ob 2	*I'ob 1	*I'fl 2	*	*I'fl 1
*Iorgan	*Iviola	*	*Ivioln	*	*Ivioln	*	*Ibass	*	*Itenor	*	*Ialto	*	*Isoprn	*	*Icor	*Icor	*Ifagot	*Ioboe	*Ioboe	*Iflt	*	*Iflt
*ICklav	*ICstr	*	*ICstr	*	*ICstr	*	*ICvox	*	*ICvox	*	*ICvox	*	*ICvox	*	*ICbras	*ICbras	*ICww	*ICww	*ICww	*ICww	*	*ICww
*IGcont	*	*	*	*	*	*	*IGcoro	*	*IGcoro	*	*IGcoro	*	*IGcoro	*	*	*	*	*	*	*	*	*
*clefF4	*clefC3	*	*clefG2	*	*clefG2	*	*clefF4	*	*clefC4	*	*clefC3	*	*clefC1	*	*clefG2	*clefG2	*clefF4	*clefG2	*clefG2	*clefG2	*	*clefG2
*	*	*	*	*	*	*	*	*	*	*	*	*	*	*	*ITrd6c10	*ITrd6c10	*	*	*	*	*	*
*k[b-]	*k[b-]	*	*k[b-]	*	*k[b-]	*	*k[b-]	*	*k[b-]	*	*k[b-]	*	*k[b-]	*	*k[f#c#]	*k[f#c#]	*k[b-]	*k[b-]	*k[b-]	*k[b-]	*	*k[b-]
*d:	*d:	*	*d:	*	*d:	*	*d:	*	*d:	*	*d:	*	*d:	*	*	*	*d:	*d:	*d:	*d:	*	*d:
*M4/4	*M4/4	*	*M4/4	*	*M4/4	*	*M4/4	*	*M4/4	*	*M4/4	*	*M4/4	*	*M4/4	*M4/4	*M4/4	*M4/4	*M4/4	*M4/4	*	*M4/4
*met(c)	*met(c)	*	*met(c)	*	*met(c)	*	*met(c)	*	*met(c)	*	*met(c)	*	*met(c)	*	*met(c)	*met(c)	*met(c)	*met(c)	*met(c)	*met(c)	*	*met(c)
=1	=1	=1	=1	=1	=1	=1	=1	=1	=1	=1	=1	=1	=1	=1	=1	=1	=1	=1	=1	=1	=1	=1
*	*	*	*^	*	*	*	*	*	*	*	*	*	*	*	*	*	*	*	*	*	*	*
!	!	!	!	!	!	!	!	!	!	!	!	!	!	!LO:TX:a:t=Graviſsimo	!	!	!	!	!	!	!	!	!
!LO:TX:a:t=Gravo	!	!	!	!	!	!	!	!LO:TX:a:t=Grave	!	!LO:TX:a:t=Grave	!	!LO:TX:a:t=Tutti	!	!	!	!	!	!	!	!LO:TX:a:i:t=Tutti	!	!	!
!LO:TX:b:t=Swięta Matko	!	!	!	!	!	!	!	!LO:TX:a:t=Tutti	!	!LO:TX:a:t=No 4.	!	!LO:TX:a:t=No 4.	!	!LO:TX:a:t=Tutti	!	!LO:TX:a:t=No 4.	!LO:TX:a:t=No 4.	!	!LO:TX:a:t=Graviſsimo	!LO:TX:a:t=No 4.	!LO:TX:a:t=No 4.	!	!
!LO:TX:a:t=No 4.	!LO:TX:a:t=Graviſsime	!	!LO:TX:a:t=No 4.	!	!LO:DY:rj	!LO:TX:a:t=No 4.	!LO:DY:a:rj	!LO:TX:a:t=No 4.	!	!LO:TX:a:t=Tutti	!	!LO:TX:a:t=graviſsimo	!	!LO:TX:a:t=No 4.	!	!LO:TX:a:t=Graviſsimo. Tutti in D	!LO:TX:a:t=Graviſsimo Tutti in D	!LO:TX:a:t=Gravismo	!LO:TX:a:i:t=Tutti	!LO:TX:a:t=Graviſsimo	!LO:TX:a:t=Grave. Tutti	!	!LO:TX:a:t=grave Tutti
4D\	4a\ 4d\	.	4a/	4f\	f	4dd/ 4d/	f	4r	.	4r	.	4r	.	4r	.	4D/	4A/	4D\	4f/	4dd\	4ff\	.	4ddd\
!	!	!	!LO:TX:a:t=Grave	!	!	!	!	!	!	!	!	!	!	!	!	!	!	!	!	!	!	!	!
4r	4r	.	4r	4ryy	.	4r	.	8D\	Swię-	8A\	Swię-	8f\	Swię-	8dd\	Swię-	8D/L	8A/L	4r	4r	4r	4r	.	4r
.	.	.	.	.	.	.	.	8D\	-ta	8A\	-ta	8f\	-ta	8dd\	-ta	8D/J	8A/J	.	.	.	.	.	.
!	!LO:TX:a:i:t=Tutti	!	!	!	!	!	!	!	!	!	!	!	!	!	!	!	!	!	!	!	!	!	!
2r	2r	.	2r	2ryy	.	2r	.	4D\	Ma-	4A\	Ma-	4f\	Ma-	4dd\	Ma-	4D/	4A/	2r	2r	2r	2r	.	2r
.	.	.	.	.	.	.	.	4D\	-tko	4A\	-tko	4f\	-tko	4dd\	-tko	4D/	4A/	.	.	.	.	.	.
*	*	*	*v	*v	*	*	*	*	*	*	*	*	*	*	*	*	*	*	*	*	*	*	*
=2	=2	=2	=2	=2	=2	=2	=2	=2	=2	=2	=2	=2	=2	=2	=2	=2	=2	=2	=2	=2	=2	=2
!	!LO:N:vis=8.	!	!LO:N:vis=16	!	!	!	!	!	!LO:TX:a:t=1	!	!	!	!	!	!	!	!LO:TX:a:t=Tutti	!LO:TX:a:t=No 4.	!	!	!	!
4D\	16.r	.	16.r	.	16.r	.	1r	.	1r	.	1r	.	1r	.	4D/	4A/	4D\	4f/	4dd\	4ff\	.	4ddd\
.	32d'\KLL	.	32d/KLL	.	32d/KLL	.	.	.	.	.	.	.	.	.	.	.	.	.	.	.	.	.
!	!LO:TX:a:t=No 4.	!	!	!	!	!	!	!	!	!	!	!	!	!	!	!	!	!	!	!	!	!
.	16.f'\	.	16.f/	.	16.f/	.	.	.	.	.	.	.	.	.	.	.	.	.	.	.	.	.
.	32a'\JJk	.	32a/JJk	.	32a/JJk	.	.	.	.	.	.	.	.	.	.	.	.	.	.	.	.	.
4r	16.d'\LL	.	16.dd\LL	.	16.dd\LL	.	.	.	.	.	.	.	.	.	4r	4r	4r	4r	4r	4r	.	4r
.	32f'\K	.	32ff\K	.	32ff\K	.	.	.	.	.	.	.	.	.	.	.	.	.	.	.	.	.
.	16.a'\	.	16.aa\	.	16.aa\	.	.	.	.	.	.	.	.	.	.	.	.	.	.	.	.	.
.	32f'\JJk	.	32ff\JJk	.	32ff\JJk	.	.	.	.	.	.	.	.	.	.	.	.	.	.	.	.	.
!	!	!	!LO:TX:t=P:problem:mixed beam	!	!LO:TX:a:t=Gravo.	!LO:DY:a	!	!	!	!	!	!	!	!	!	!	!	!	!	!	!	!
4D\	4d\	.	8dd\L	.	8dd\L	p	.	.	.	.	.	.	.	.	2r	2r	4D\	2r	2r	8r	.	8r
!	!	!	!	!LO:DY:a:rj	!	!	!	!	!	!	!	!	!	!	!	!	!	!	!	!	!	!
.	.	.	8f/	p	8dd\	.	.	.	.	.	.	.	.	.	.	.	.	.	.	8ff'\L	p	8ddd\L|
4r	4r	.	8e/	.	8cc#X\	.	.	.	.	.	.	.	.	.	.	.	4r	.	.	(8ee\	.	(8ccc#X\
.	.	.	8f/J	.	8dd\J	.	.	.	.	.	.	.	.	.	.	.	.	.	.	8ff\J)	.	8ddd\J)
=3	=3	=3	=3	=3	=3	=3	=3	=3	=3	=3	=3	=3	=3	=3	=3	=3	=3	=3	=3	=3	=3	=3
!	!	!	!	!	!	!	!	!	!	!	!	!	!	!	!	!	!LO:TX:a:t=No 4.	!	!	!	!	!
4AA/	4c#X\	.	4g/ 4A/	.	4ee\	.	4r	.	4r	.	4r	.	4r	.	4A/	4e\	4AA/	4cc#X\	4ee\	4gg\	.	4eee\
!	!	!	!	!	!	!	!	!	!	!	!	!	!	!	!	!	!	!	!	!	!	!LO:TX:a:t=No 4.
4r	4r	.	4r	.	4r	.	8AA/	Swię-	8A\	Swię-	8g\	Swię-	8ee\	Swię-	8A/L	8e\L	4r	4r	4r	4r	.	4r
.	.	.	.	.	.	.	8AA/	-ta	8A\	-ta	8g\	-ta	8ee\	-ta	8A/J	8e\J	.	.	.	.	.	.
2r	2r	.	2r	.	2r	.	4D\	Ma-	4A\	Ma-	4g\	Ma-	4ee\	Ma-	4A/	4e\	2r	2r	2r	2r	.	2r
.	.	.	.	.	.	.	4D\	-tko	4A\	-tko	4f\	-tko	4dd\	-tko	4A/	4d\	.	.	.	.	.	.
=4	=4	=4	=4	=4	=4	=4	=4	=4	=4	=4	=4	=4	=4	=4	=4	=4	=4	=4	=4	=4	=4	=4
!	!	!	!	!	!	!LO:DY:a	!	!	!	!	!	!	!	!	!	!	!	!	!	!	!	!
2r	2r	.	2r	.	2r	f	4A\	do-	4.A\	dopusć	4.e\	dopuść	4.cc#X\	dopuść	4A/	4e\	2r	2r	2r	2r	.	2r
.	.	.	.	.	.	.	8A\	-puść	.	.	.	.	.	.	8A/L	8e\L	.	.	.	.	.	.
.	.	.	.	.	.	.	8A\	na	8A\	na	8e\	na	8cc#\	na	8A/J	8e\J	.	.	.	.	.	.
!	!	!LO:DY:rj:t=f&colon;	!LO:N:vis=16	!LO:DY:a:rj	!	!	!	!	!	!	!	!	!	!	!	!	!	!	!	!	!	!
4AA/	16.r	f	16.r	f	16.r	.	4A\	mie	4c#X\	mię	4g\	mię	4ee\	mie	4A/	4e\	4AA/	4r	4r	4r	.	4r
.	32A'/KLL	.	32A/KLL	.	32A/KLL	.	.	.	.	.	.	.	.	.	.	.	.	.	.	.	.	.
.	16.c#X'/	.	16.c#X/	.	16.c#X/	.	.	.	.	.	.	.	.	.	.	.	.	.	.	.	.	.
.	32e'/JJk	.	32e/JJk	.	32e/JJk	.	.	.	.	.	.	.	.	.	.	.	.	.	.	.	.	.
8r	16.a'\LL	.	16.a\LL	.	16.a\LL	.	4r	.	4r	.	4r	.	4r	.	4r	4r	8r	8r	8r	8r	.	8r
.	32cc#X'\K	.	32cc#X\K	.	32cc#X\K	.	.	.	.	.	.	.	.	.	.	.	.	.	.	.	.	.
8AA/	16.ee'\	.	16.ee\	.	16.ee\	.	.	.	.	.	.	.	.	.	.	.	8AA/	8cc#X\	8ee\	8gg\	.	8eee\
.	32cc#'\JJk	.	32cc#\JJk	.	32cc#\JJk	.	.	.	.	.	.	.	.	.	.	.	.	.	.	.	.	.
!	!	!	!	!	!	!	!	!	!	!	!LO:LB:g=original	!	!	!	!	!	!	!	!	!	!	!
=5	=5	=5	=5	=5	=5	=5	=5	=5	=5	=5	=5	=5	=5	=5	=5	=5	=5	=5	=5	=5	=5	=5
!	!LO:SIC:v:s=4cc#\	!	!	!	!	!	!	!	!	!	!	!	!	!	!	!	!	!LO:SIC:v:s=4cc#\	!	!	!	!
4AA/	4cc\	.	4ee/ 4a/	.	4ee\ 4a\	.	8r	.	8r	.	8r	.	8r	.	4A/	4e\	4AA/	4cc\	4ee\	4gg\	.	4eee\
.	.	.	.	.	.	.	8A\	niech	8c#X\	Niech	8g\	niech	8ee\	niech	.	.	.	.	.	.	.	.
4r	4r	.	4r	.	4r	.	8A\	ran	8c#\	ran	8g\	ran	8ee\	ran	8A/L	8e\L	4r	4r	4r	4r	.	4r
.	.	.	.	.	.	.	8A\	Sy-	8c#\	Sy-	8g\	sy-	8ee\	Sy-	8A/J	8e\J	.	.	.	.	.	.
2r	2r	.	2r	.	2r	.	4D\	-na	4A\	-na	8g\	-na	8ee\L	-na	4D/	8e\L	2r	2r	2r	2r	.	2r
.	.	.	.	.	.	.	.	.	.	.	8f\	twe-	8dd\J	twe-	.	8d\J	.	.	.	.	.	.
.	.	.	.	.	.	.	4D\	twe-	4A\	twe-	4f\	-go	4dd\	-go	4D/	4d\	.	.	.	.	.	.
!	!	!	!	!	!	!	!LO:LB:g=original	!	!	!	!	!	!LO:LB:g=original	!	!	!	!	!	!	!	!	!
=6	=6	=6	=6	=6	=6	=6	=6	=6	=6	=6	=6	=6	=6	=6	=6	=6	=6	=6	=6	=6	=6	=6
!	!LO:TX:a:t=1.	!	!LO:TX:a:t=1.	!	!LO:TX:a:t=1	!	!	!	!	!	!	!	!	!	!	!	!	!LO:TX:a:t=1.	!LO:TX:a:t=1.	!LO:TX:a:t=1.	!	!
1r	1r	.	1r	.	1r	.	4A\	-go	4A\	-go	4e\	zna-	4cc#X\	zna-	4AA/	4A/	1r	1r	1r	1r	.	1r
.	.	.	.	.	.	.	4F\	zna-	4A\	zna-	4f\	.	4dd\	.	4D/	4A/	.	.	.	.	.	.
!	!	!	!	!	!	!	!	!	!LO:LB:g=original	!	!	!	!	!	!	!	!	!	!	!	!	!
.	.	.	.	.	.	.	4.C#X/	-mie	4.A\	-mie	4.g\	-mię	4.ee\	-mie	4.AA/	4.A/	.	.	.	.	.	.
.	.	.	.	.	.	.	8D\	mam	8A\	mam	8f\	mam	8dd\	mam	8D/	8A/	.	.	.	.	.	.
!	!	!	!	!	!	!	!	!	!	!	!	!	!	!	!LO:LB:g=original	!	!	!	!	!	!	!
=7	=7	=7	=7	=7	=7	=7	=7	=7	=7	=7	=7	=7	=7	=7	=7	=7	=7	=7	=7	=7	=7	=7
*	*	*	*	*	*	*	*	*	*	*	*	*	*	*	*2\right	*2\right	*	*	*	*	*	*
2r	2r	.	2r	.	2r	.	4.G#X\	na	4.Bn\	na	4.f\	na	4.dd\	na	2d\	2d\	2r	2r	2r	2r	.	2r
.	.	.	.	.	.	.	8G#\	ser-	8B\	Ser-	8f\	Ser-	8dd\	Ser-	.	.	.	.	.	.	.	.
4r	4r	.	4r	.	4r	.	4A\	-cu	4A\	-cu	4e\	-cu	4cc#X\	-cu	4A/	4e\	4r	4r	4r	4r	.	4r
4GG#X/	4G#X/	.	4G#X/	.	4G#X/	.	4r	.	4r	.	4r	.	4r	.	4r	4r	4GG#X'/	4g#X/|	4g#X/|	4g#X/|	.	4g#X/
!	!	!	!	!	!LO:LB:g=original	!	!	!	!	!	!	!	!	!	!	!	!	!	!	!	!	!
=8	=8	=8	=8	=8	=8	=8	=8	=8	=8	=8	=8	=8	=8	=8	=8	=8	=8	=8	=8	=8	=8	=8
!	!	!	!	!	!	!	!	!	!	!	!	!	!	!	!	!	!	!LO:TX:t=P:problem:mixed beam	!LO:TX:t=P:problem:mixed beam	!	!	!
8AA'/L	8A'\L	.	8A/L	.	8A/L	.	1r;	.	1r;	.	1r;	.	1r;	.	2r	2r	8AA'/L	8a\L|	8a\L|	8a\L|	.	8a'\L
8C#X'/	8c#X'\	.	8c#X/	.	8c#X/	.	.	.	.	.	.	.	.	.	.	.	8C#X'/	8cc#X\|	8cc#X\|	8cc#X\|	.	8cc#X'\
8E'/	8e'\	.	8e/	.	8e/	.	.	.	.	.	.	.	.	.	.	.	8E'/	8ee\|	8ee\|	8ee\|	.	8ee'\
8G#X'/J	8g#X'\J	.	8g#X/J	.	8g#X/J	.	.	.	.	.	.	.	.	.	.	.	8G#X'/J	8g#X/J|	8g#X/J|	8gg#X\J|	.	8gg#X'\J
*2\right	*2\right	*	*	*	*	*	*	*	*	*	*	*	*	*	*	*	*2\right	*	*	*	*	*2\right
2A;\	2a;\	.	2a;/	.	2a;/	.	.	.	.	.	.	.	.	.	2AA;/	2A;/	2A;\	2a;/	2a;/	2aa;\	.	2aa;\
!	!LO:LB:g=original	!	!LO:LB:g=original	!	!	!	!	!	!	!	!	!	!	!	!	!LO:LB:g=original	!	!	!	!	!	!
=9	=9	=9	=9	=9	=9	=9	=9	=9	=9	=9	=9	=9	=9	=9	=9	=9	=9	=9	=9	=9	=9	=9
*	*	*	*^	*	*	*	*	*	*	*	*	*	*	*	*	*	*	*	*	*	*	*
!	!	!	!	!	!	!	!	!	!	!	!	!	!	!	!	!LO:TX:a:t=7	!LO:TX:a:t=7	!	!	!	!	!	!
4F\	4c\	.	4a/	4fn\	.	4ffn/ 4a/	.	4r	.	4r	.	4r	.	4r	.	00r	00r	4FF/	4fn/	4a/	4a/	.	4ffn\
4r	4r	.	4r	4ryy	.	4r	.	8F\	mam	8f\	mam	8a\	mam	8cc\	mam	.	.	4r	4r	4r	4r	.	4r
.	.	.	.	.	.	.	.	8F\	na	8f\	na	8a\	na	8cc\	na	.	.	.	.	.	.	.	.
(4F\	2f\	.	(16c/LL	2ryy	.	(16ee-X\LL	.	4F\	Ser-	4f\	Ser-	4a\	Ser-	4cc\	Ser-	.	.	(4A\	4cc\	4ee-X\	4cc\	.	2ffTT\
.	.	.	16A/)	.	.	16cc\	.	.	.	.	.	.	.	.	.	.	.	.	.	.	.	.	.
.	.	.	16c/	.	.	16ff\	.	.	.	.	.	.	.	.	.	.	.	.	.	.	.	.	.
.	.	.	16A/JJ	.	.	16dd\JJ)	.	.	.	.	.	.	.	.	.	.	.	.	.	.	.	.	.
(4D\)	.	.	16B-/LL	.	.	(16dd\LL	.	4D\	-cu	4f\	-cu	4b-\	-cu	4dd\	-cu	.	.	4B-X\	4b-X\	4dd\	4dd\	.	.
.	.	.	16d/	.	.	16b-X\	.	.	.	.	.	.	.	.	.	.	.	.	.	.	.	.	.
.	.	.	16B-/	.	.	16dd\)	.	.	.	.	.	.	.	.	.	.	.	.	.	.	.	.	.
!	!	!	!	!	!	!LO:SIC:v:s=16b-\JJ	!	!	!	!	!	!	!	!	!	!	!	!	!	!	!	!	!
.	.	.	16d/JJ	.	.	16cc\JJ	.	.	.	.	.	.	.	.	.	.	.	.	.	.	.	.	.
*	*	*	*v	*v	*	*	*	*	*	*	*	*	*	*	*	*	*	*	*	*	*	*	*
!	!	!	!	!	!	!	!	!	!	!	!LO:LB:g=original	!	!	!	!	!	!	!LO:LB:g=original	!	!	!	!
=10	=10	=10	=10	=10	=10	=10	=10	=10	=10	=10	=10	=10	=10	=10	=10	=10	=10	=10	=10	=10	=10	=10
4AA/	2f\	.	16e-X/LL	.	16ccn\LL	.	4AA/	wy-	4f\	wy-	4ccn\	wy-	4ee-X\	wy-	.	.	4c\	4a/	4ccn\	4ee-X\	.	2ffTTT\
.	.	.	(16c/	.	(16a\	.	.	.	.	.	.	.	.	.	.	.	.	.	.	.	.	.
.	.	.	16e-/)	.	16cc\	.	.	.	.	.	.	.	.	.	.	.	.	.	.	.	.	.
.	.	.	16c/JJ	.	16a\JJ)	.	.	.	.	.	.	.	.	.	.	.	.	.	.	.	.	.
4BB-/	.	.	16f/LL	.	(16dd\LL	.	4BB-/	.	4f\	.	4b-\	.	4dd\	.	.	.	4B-\)	4b-/	4dd\	4dd\	.	.
.	.	.	16d/	.	16b-\	.	.	.	.	.	.	.	.	.	.	.	.	.	.	.	.	.
.	.	.	16f/	.	16dd\)	.	.	.	.	.	.	.	.	.	.	.	.	.	.	.	.	.
.	.	.	16d/JJ	.	16b-\JJ	.	.	.	.	.	.	.	.	.	.	.	.	.	.	.	.	.
*	*	*	*	*	*	*	*	*	*2\right	*	*	*	*2\right	*	*	*	*	*	*2\right	*2\right	*	*
4E-X\	2f\	.	16e-/LL	.	16cc\LL	.	4E-X\	.	2f\	-ri-	(4b-\	-ri-	2dd\	-ri-	.	.	2F\	4b-/	2cc\	2ee-\	.	2ffTTT\
.	.	.	16c/	.	(16b-\	.	.	.	.	.	.	.	.	.	.	.	.	.	.	.	.	.
.	.	.	16e-/	.	16cc\	.	.	.	.	.	.	.	.	.	.	.	.	.	.	.	.	.
.	.	.	16c/JJ	.	16b-\JJ)	.	.	.	.	.	.	.	.	.	.	.	.	.	.	.	.	.
4F\)	.	.	16e-/LL	.	16cc\LL	.	4F\	-ri-	.	.	4a\)	.	.	.	.	.	.	4a/	.	.	.	.
!	!	!	!	!	!LO:SIC:v:s=(16a\	!	!	!	!	!	!	!	!	!	!	!	!	!	!	!	!	!
.	.	.	16c/	.	(16b-\	.	.	.	.	.	.	.	.	.	.	.	.	.	.	.	.	.
.	.	.	16e-/	.	16cc\	.	.	.	.	.	.	.	.	.	.	.	.	.	.	.	.	.
.	.	.	16c/JJ	.	16cc\JJ)	.	.	.	.	.	.	.	.	.	.	.	.	.	.	.	.	.
!LO:LB:g=original	!	!	!	!	!	!	!	!	!	!	!	!	!	!	!	!	!	!	!	!LO:LB:g=original	!	!
=11	=11	=11	=11	=11	=11	=11	=11	=11	=11	=11	=11	=11	=11	=11	=11	=11	=11	=11	=11	=11	=11	=11
!	!	!	!	!	!LO:TX:a:i:t=dolce	!LO:DY:rj	!	!	!	!	!	!	!	!	!	!	!	!	!	!	!	!
4BB-/	4f\	.	8d/L	.	8dd\L	p	4BB-/	-te	4f\	-te.	4b-\	-te	4dd\	-te	.	.	4BB-/	4b-/	4dd\	4dd\	.	4ff\
.	.	.	8d/	.	8b-\	.	.	.	.	.	.	.	.	.	.	.	.	.	.	.	.	.
!	!	!	!LO:SIC:v:s=8e-/	!	!	!	!	!	!	!	!	!	!	!	!	!	!	!	!	!	!	!
4r	4r	.	8e/	.	8cc\	.	4r	.	4r	.	4r	.	4r	.	.	.	4r	4r	4r	4r	.	4r
.	.	.	8f/J	.	8dd\J	.	.	.	.	.	.	.	.	.	.	.	.	.	.	.	.	.
!	!	!	!	!	!LO:SIC:v:s=8ee-	!	!	!	!	!	!	!	!	!	!	!	!	!	!	!	!	!
2r	2r	.	8g/L	.	8ee\L	.	2r	.	2r	.	2r	.	2r	.	.	.	2r	2r	2r	2r	.	2r
!	!	!	!LO:SIC:v:s=8e-/	!	!	!	!	!	!	!	!	!	!	!	!	!	!	!	!	!	!	!
.	.	.	8e/	.	(8cc\	.	.	.	.	.	.	.	.	.	.	.	.	.	.	.	.	.
.	.	.	8c/	.	8a\	.	.	.	.	.	.	.	.	.	.	.	.	.	.	.	.	.
!	!	!	!LO:SIC:v:s=8e-/J	!	!	!	!	!	!	!	!	!	!	!	!	!	!	!	!	!	!	!
.	.	.	8e/J	.	8cc\J)	.	.	.	.	.	.	.	.	.	.	.	.	.	.	.	.	.
!	!	!	!	!	!	!	!	!	!	!	!	!	!	!	!	!	!	!	!LO:LB:g=original	!	!	!
=12	=12	=12	=12	=12	=12	=12	=12	=12	=12	=12	=12	=12	=12	=12	=12	=12	=12	=12	=12	=12	=12	=12
!	!	!	!	!	!	!	!	!	!	!	!	!	!LO:TX:a:t=1.	!	!	!	!	!	!	!	!	!
4r	4f\	.	4d/	.	4b-\	.	1r	.	1r	.	1r	.	1r	.	.	.	4r	4r	4r	4r	.	4r
8BB-/L	8f\L	.	8d/L	.	8b-\L	.	.	.	.	.	.	.	.	.	.	.	8BBB-/L	8b-/L	8dd\L	8dd\L	.	8bb-X\L
8BB-/J	8f\J	.	8d/J	.	8b-\J	.	.	.	.	.	.	.	.	.	.	.	8BBB-/J	8b-/J	8dd\J	8dd\J	.	8bb-\J
4BB-/	4f\	.	4d/	.	4b-\	.	.	.	.	.	.	.	.	.	.	.	4BBB-/	4b-/	4dd\	4dd\	.	4bb-\
!	!	!	!	!	!	!	!	!	!	!	!	!	!	!	!	!	!	!	!	!	!	!LO:TX:t=P:problem:uszkodzony papier
8B-\L	4r	.	4r	.	4r	.	.	.	.	.	.	.	.	.	.	.	8BB-/L	4r	4r	4r	.	4ryy
8A\J	.	.	.	.	.	.	.	.	.	.	.	.	.	.	.	.	8AA/J	.	.	.	.	.
!	!	!	!	!	!	!	!LO:LB:g=original	!	!LO:LB:g=original	!	!	!	!LO:PB:g=original	!	!	!	!LO:LB:g=original	!	!	!	!	!LO:LB:g=original
=13	=13	=13	=13	=13	=13	=13	=13	=13	=13	=13	=13	=13	=13	=13	=13	=13	=13	=13	=13	=13	=13	=13
4G\	4g/ 4Bn/	.	4bn/ 4d/ 4G/	.	4dd/ 4g/	f	4r	.	4r	.	4r	.	4r	.	0r	0r	4GG/	4g/	4bn\	4bn\	.	4gg\
4r	4r	.	4r	.	4r	.	8G\	niech	8Bn\	niech	8g\	niech	8dd\	niech	.	.	4r	4r	4r	4r	.	4r
.	.	.	.	.	.	.	8G\	ran	8B\	ran	8g\	ran	8dd\	ran	.	.	.	.	.	.	.	.
4G\	2g\	.	16d/LL	.	16ff\LL	.	4G\	Sy-	4B\	Sy-	4g\	Sy-	4dd\	Sy-	.	.	4Bn\	4dd\	4ffn\	4dd\	.	2ggTT\
.	.	.	16Bn/	.	(16dd\	.	.	.	.	.	.	.	.	.	.	.	.	.	.	.	.	.
.	.	.	16d/	.	16ff\	.	.	.	.	.	.	.	.	.	.	.	.	.	.	.	.	.
.	.	.	16B/JJ	.	16dd\JJ)	.	.	.	.	.	.	.	.	.	.	.	.	.	.	.	.	.
!	!	!	!	!	!LO:LB:g=original	!	!	!	!	!	!	!	!	!	!	!	!	!	!	!	!	!
4En\	.	.	16c/LL	.	(16een\LL	.	4En\	-na	4c\	-na	4g\	-na	4een\	-na	.	.	4c\	4cc\	4ee\	4een\	.	.
.	.	.	(16en/	.	16cc\	.	.	.	.	.	.	.	.	.	.	.	.	.	.	.	.	.
.	.	.	16c/	.	16ee\)	.	.	.	.	.	.	.	.	.	.	.	.	.	.	.	.	.
.	.	.	16e/JJ)	.	16cc\JJ	.	.	.	.	.	.	.	.	.	.	.	.	.	.	.	.	.
=14	=14	=14	=14	=14	=14	=14	=14	=14	=14	=14	=14	=14	=14	=14	=14	=14	=14	=14	=14	=14	=14	=14
4BBn/	2g\	.	(16f/LL	.	(16dd\LL	.	4BBn/	twe-	4d\	twe-	4g\	twe-	4ff\	twe-	.	.	4d\	4bn\	4dd\	4ff\	.	2ggTTT\
.	.	.	16d/	.	16bn\	.	.	.	.	.	.	.	.	.	.	.	.	.	.	.	.	.
.	.	.	16f/	.	16dd\)	.	.	.	.	.	.	.	.	.	.	.	.	.	.	.	.	.
.	.	.	16d/JJ)	.	16b\JJ	.	.	.	.	.	.	.	.	.	.	.	.	.	.	.	.	.
4C/	.	.	16g/LL	.	(16ee\LL	.	4C/	-go	4c\	-go	4g\	-go	4ee\	-go	.	.	4c\	[4cc\	4ee\	4ee\	.	.
.	.	.	16en/	.	16cc\	.	.	.	.	.	.	.	.	.	.	.	.	.	.	.	.	.
.	.	.	16g/	.	16ee\	.	.	.	.	.	.	.	.	.	.	.	.	.	.	.	.	.
.	.	.	(16e/JJ	.	16cc\JJ)	.	.	.	.	.	.	.	.	.	.	.	.	.	.	.	.	.
*	*	*	*	*	*	*	*	*	*	*	*2\right	*	*	*	*	*	*	*	*	*	*	*
4F\	2g\	.	16f/LL	.	16dd\LL	.	4F\	zna-	4c\	zna-	2g\	zna-	2dd\	zna-	.	.	2G\	4cc\]	2dd\	2ff\	.	2ggTTT\
.	.	.	16d/)	.	(16cc\	.	.	.	.	.	.	.	.	.	.	.	.	.	.	.	.	.
.	.	.	16f/	.	16dd\	.	.	.	.	.	.	.	.	.	.	.	.	.	.	.	.	.
.	.	.	16d/JJ	.	16cc\JJ)	.	.	.	.	.	.	.	.	.	.	.	.	.	.	.	.	.
4G\	.	.	(16f/LL	.	(16dd\LL	.	4G\	.	4Bn\	.	.	.	.	.	.	.	.	4b\	.	.	.	.
.	.	.	16d/	.	16b\	.	.	.	.	.	.	.	.	.	.	.	.	.	.	.	.	.
.	.	.	16f/	.	16dd\)	.	.	.	.	.	.	.	.	.	.	.	.	.	.	.	.	.
.	.	.	16d/JJ)	.	16b\JJ	.	.	.	.	.	.	.	.	.	.	.	.	.	.	.	.	.
!	!	!	!LO:LB:g=original	!	!	!	!	!	!	!	!	!	!	!	!	!	!	!	!	!	!	!
=15	=15	=15	=15	=15	=15	=15	=15	=15	=15	=15	=15	=15	=15	=15	=15	=15	=15	=15	=15	=15	=15	=15
!	!	!	!	!LO:DY:a:rj	!LO:TX:a:i:t=dolce	!	!	!	!	!	!	!	!	!	!	!	!	!	!	!	!	!
4C/	4g\	.	4e/	p	8ee\L	p	4C/	-mie	4c\	-mie	4g\	-mie	4ee\	-mie	1r	1r	4C/	4cc\	4ee\	4ee\	.	4gg\
.	.	.	.	.	8cc\	.	.	.	.	.	.	.	.	.	.	.	.	.	.	.	.	.
4r	4r	.	8f/L	.	8dd\	.	4r	.	4r	.	4r	.	4r	.	.	.	4r	4r	4r	4r	.	4r
.	.	.	8g/J	.	8ee\J	.	.	.	.	.	.	.	.	.	.	.	.	.	.	.	.	.
2r	2r	.	8a/L	.	8ff\L	.	2r	.	2r	.	2r	.	2r	.	.	.	2r	2r	2r	2r	.	2r
.	.	.	8d/J	.	8bn\J	.	.	.	.	.	.	.	.	.	.	.	.	.	.	.	.	.
.	.	.	.	.	16qqb/	.	.	.	.	.	.	.	.	.	.	.	.	.	.	.	.	.
.	.	.	4e/	.	4cc\	.	.	.	.	.	.	.	.	.	.	.	.	.	.	.	.	.
=16	=16	=16	=16	=16	=16	=16	=16	=16	=16	=16	=16	=16	=16	=16	=16	=16	=16	=16	=16	=16	=16	=16
!	!	!	!	!LO:DY:a	!	!	!	!	!	!	!	!	!	!	!	!	!	!	!	!	!	!
4AA/	4c#X\	.	4e/ 4A/	f	4ee/ 4a/	f	8A\	niech	8A\	Mam	8e\	niech	8cc#X\	niech	8AA/L	8A/L	4AA/	4cc#X\	4ee\	4aa\	.	4ccc#X\
.	.	.	.	.	.	.	8A\	ran	8A\	w Ser-	8e\	ran	8cc#\	ran	8AA/	8A/J	.	.	.	.	.	.
4r	4r	.	4r	.	4r	.	8F\	Sy-	8A\	-cu	8f\	Sy-	8dd\	Sy-	8D/	4A/	4r	4r	4r	4r	.	4r
.	.	.	.	.	.	.	8C#X/	-na	8A\	mym	8g\	-na	8ee\	-na	8AA/J	.	.	.	.	.	.	.
!	!	!	!	!	!	!	!	!	!	!	!LO:LB:g=original	!	!	!	!	!	!	!	!	!	!	!
2r	2r	.	2r	.	2r	.	4.D\	twe-	4.A\	wy-	4.f\	twe-	4.dd\	twe-	2D/	2A/	2r	2r	2r	2r	.	2r
.	.	.	.	.	.	.	8D\	-go	8A\	-ry-	8f\	-go	8dd\	-go	.	.	.	.	.	.	.	.
=17	=17	=17	=17	=17	=17	=17	=17	=17	=17	=17	=17	=17	=17	=17	=17	=17	=17	=17	=17	=17	=17	=17
!	!	!	!	!LO:DY:a	!	!	!	!	!	!	!	!	!	!	!	!	!	!	!	!LO:TX:a:t=1.	!	!
2AA/	8r	.	8r	p	8r	.	8AA/	znamie	8A\	-te.	8e\	zna-	8cc#X\	zna-	2AA/	2A/	2AA/	8r	8r	1r	.	1r
!	!	!	!	!	!	!LO:DY:a	!	!	!	!	!	!	!LO:TX:a:i:t=Solo	!	!	!	!	!	!	!	!	!
.	(8a\L	.	8A/L	.	8c#X/L	p	8r	.	8r	.	8c#X\	-mię	8a\	-mie	.	.	.	8a/|	8cc#X\L|	.	.	.
!	!	!	!	!	!	!	!	!	!	!	!	!	!LO:SIC:v:l:s=mam	!	!	!	!	!	!	!	!	!
!	!	!	!	!	!	!	!	!	!	!	!	!	!LO:SIC:v:s=8bn\L	!	!	!	!	!	!	!	!	!
.	8g#X\	.	8Bn/	.	8d/	.	4r	.	4r	.	8d\	mam	8b-\L	ma	.	.	.	(8bn\L	(8dd\	.	.	.
.	8gn\J)	.	8c#X/J	.	8e/J	.	.	.	.	.	8e\	.	8cc#X\J	.	.	.	.	8cc#X\J)	8ee\J)	.	.	.
2AA/	8f\L	.	8d/L	.	8fn/L	.	2r	.	2r	.	8f\	na	8dd\	na	2AA/	2A/	2AA/	(8dd\L	(8ff\L	.	.	.
.	(16e\L	.	16e/L	.	(16g/L	.	.	.	.	.	16g\LL	Ser-	16ee\LL	Ser-	.	.	.	16ee\L	16gg\L	.	.	.
.	16d\JJ	.	16f/JJ	.	16a/JJ	.	.	.	.	.	16a\JJ	.	16ff\JJ	.	.	.	.	16ff\JJ	16aa\JJ	.	.	.
!	!	!	!	!	!	!	!	!	!	!	!	!	!LO:LB:g=original	!	!	!	!	!	!	!	!	!
.	8c#X\L	.	8e/L	.	8g/L)	.	.	.	.	.	8g\	-cu	8ee\	-cu	.	.	.	8ee\L)	8gg\L)	.	.	.
.	8d\J)	.	8d/J	.	8f/J	.	.	.	.	.	8f\	wy-	8dd\	wy-	.	.	.	8dd\J	8ff\J	.	.	.
!	!	!	!	!	!	!	!LO:LB:g=original	!	!LO:LB:g=original	!	!	!	!	!	!	!	!	!	!	!	!	!
=18	=18	=18	=18	=18	=18	=18	=18	=18	=18	=18	=18	=18	=18	=18	=18	=18	=18	=18	=18	=18	=18	=18
!LO:TX:t=P:problem:mixed beam	!	!LO:HP:a	!	!	!	!	!	!	!	!	!	!	!	!	!	!	!LO:TX:t=P:problem:mixed beam	!	!	!	!	!
(8AA/L	1A/	>]	8d/L	.	8f/L	.	8r	.	8r	.	8f\	-ry-	8dd\	-ri-	1AA/	1A/	(8AA/L	8dd\L	8ff\L	8r	.	8r
!	!	!	!LO:SIC:v:s=16c#/L	!	!	!	!	!	!	!	!	!	!	!	!	!	!	!	!	!	!	!
8A\	.	.	16c/L	.	(16e/L	.	8C#X\	mam	8A\L	Twe-	8e\	-te	8cc#X\	-te	.	.	8A\	8cc#X\J	8ee\J	(8cc#X\L	.	(8aa\L
.	.	.	16a/JJ	.	16cc#X/JJ)	.	.	.	.	.	.	.	.	.	.	.	.	.	.	.	.	.
8G#X\	.	.	8bn\L	.	8dd'\L	.	(8D\L	na	8Bn\	.	4r	.	4r	.	.	.	8G#X\	4r	4r	8dd\	.	8bbn\
8Gn\J	.	.	8cc#X\J	.	8ee'\J	.	8E\J)	.	8c#X\J	.	.	.	.	.	.	.	8Gn\J	.	.	8ee\J	.	8ccc#X\J
8F'\L	.	.	8dd\L	.	(8ff'\L	.	8F\	Ser-	8d\	.	2r	.	2r	.	.	.	8F\L	2r	2r	8ff\L	.	(8ddd\L
(16E\L	.	.	16ee\L	.	16gg\L	.	16G\LL	-cu	16e\LL	.	.	.	.	.	.	.	16E\L	.	.	16gg\L	.	16eee\L
16D\JJ))	.	.	16ff\JJ	.	16aa\JJ)	.	16A\JJ	.	16f\JJ	.	.	.	.	.	.	.	16D\JJ	.	.	16aa\JJ	.	16fff\JJ)
8C#X'/L	.	.	8ee\L	.	8gg\L	.	8G\L	wy-	8e\	.	.	.	.	.	.	.	8C#X/L	.	.	8gg\L	.	8eee\L)
8D'/J	.	.	8dd\J	.	8ff\J	.	8F\J	.	8d\	.	.	.	.	.	.	.	8D/J)	.	.	8ff\J)	.	8ddd\J
!	!LO:LB:g=original	!	!	!	!	!	!	!	!	!	!	!	!	!	!	!	!	!LO:LB:g=original	!	!	!	!
=19	=19	=19	=19	=19	=19	=19	=19	=19	=19	=19	=19	=19	=19	=19	=19	=19	=19	=19	=19	=19	=19	=19
!	!LO:TX:t=P:problem:mixed beam	!	!LO:TX:t=P:problem:mixed beam	!	!LO:TX:t=P:problem:mixed beam	!	!	!	!	!	!	!	!	!	!	!	!	!	!	!	!	!
1AA/	(8A/L	.	8dd\L	.	8ff\L	.	8F\	-ri-	8d\	.	8r	.	8r	.	1AA/	1A/	1AA/	8r	8r	8ff\L	.	8ddd\L
.	8a\	.	16cc#X\L	.	(16ee\L	.	8E\	-te	8c#X\	-go	8c#X\L	twe-	8a\L	Twe-	.	.	.	(8a\L	8cc#X\L|	8ee\J	.	8ccc#X\J
.	.	.	16A/JJ	.	16c#X/JJ)	.	.	.	.	.	.	.	.	.	.	.	.	.	.	.	.	.
!	!	!	!	!	!LO:LB:g=original	!	!	!	!	!	!	!	!	!	!	!	!	!	!	!	!	!
.	8g#X\	.	8Bn/L	.	8d'/L	.	4r	.	4r	.	8d\J	.	8bn\J	.	.	.	.	8bn\	(8dd\	4r	.	4r
.	8gn\J	.	8c#X/J	.	8e'/J	.	.	.	.	.	8e\	-go	8cc#X\	-go	.	.	.	8cc#X\J	8ee\J)	.	.	.
.	8f\L	.	8d/L	.	8f'/L	.	2r	.	2r	.	8f\	sy-	8dd\	sy-	.	.	.	8dd\L	(8ff\L	2r	.	2r
.	16e\L	.	16e/L	.	(16g/L	.	.	.	.	.	16g\LL	-na	16ee\LL	-na	.	.	.	16ee\L	16gg\L	.	.	.
.	16d\JJ	.	16f/JJ	.	16a/JJ)	.	.	.	.	.	16a\JJ	.	16ff\JJ	.	.	.	.	16ff\JJ	16aa\JJ	.	.	.
.	8c#X\L	.	8e/L	.	8g'/L	.	.	.	.	.	8g\	zra-	8ee\	zra-	.	.	.	8ee\L)	8gg\L	.	.	.
.	8d\J)	.	8d/J	.	8f'/J	.	.	.	.	.	8f\	-nio-	8dd\	-nio-	.	.	.	8dd\J	8ff\J)	.	.	.
!	!	!	!	!	!	!	!	!	!	!	!LO:LB:g=original	!	!	!	!	!	!	!	!	!	!	!
=20	=20	=20	=20	=20	=20	=20	=20	=20	=20	=20	=20	=20	=20	=20	=20	=20	=20	=20	=20	=20	=20	=20
!LO:TX:t=P:problem:mixed beam	!	!	!	!	!	!	!	!	!	!	!	!	!	!	!	!	!LO:TX:t=P:problem:mixed beam	!	!	!	!	!
(8AA/L	1A/	>]	8d/L	.	8f/L	.	8r	.	8r	.	8f\	-ne-	8dd\	-ne-	1AA/	1A/	(8AA/L	8dd\L	(8ff\L	8r	.	8r
!	!	!	!	!	!	!	!	!	!	!	!	!	!	!	!	!	!	!LO:SIC:v:s=8cc#\J	!	!	!	!
8A\	.	.	16c#X/L	.	(16e/L	.	8C#X\L	Twe-	8A\L	Sy	8e\	-go	8cc#X\	-go	.	.	8A\	8cc\J	8ee\J)	(8cc#X\L	.	(8aa\L
.	.	.	16a/JJ	.	16cc#X/JJ)	.	.	.	.	.	.	.	.	.	.	.	.	.	.	.	.	.
8G#X\	.	.	(8bn\L	.	8dd'\L	.	8D\J	.	8Bn\	.	4r	.	4r	.	.	.	8G#X\	4r	4r	8dd\	.	8bbn\
8Gn\J	.	.	8cc#X\J)	.	8ee'\J	.	8E\L	-go	8c#X\J	.	.	.	.	.	.	.	8Gn\J	.	.	8ee\J	.	8ccc#X\J
8F\L)	.	.	8dd\L	.	8ff\L	.	8F\J	Sy-	8d\	.	2r	.	2r	.	.	.	8F\L	2r	2r	8ff\L	.	8ddd\L
16E\L	.	.	(16ee\L	.	16gg\L	.	16G\LL	-na	16e\LL	.	.	.	.	.	.	.	16E\L	.	.	16gg\L	.	16eee\L
16D\JJ	.	.	16ff\JJ)	.	16aa\JJ	.	16A\JJ	.	16f\JJ	.	.	.	.	.	.	.	16D\JJ	.	.	16aa\JJ	.	16fff\JJ
8C#X/L	.	.	8ee\L	.	8gg\L	.	8G\	zra-	8e\	.	.	.	.	.	.	.	8C#X/L)	.	.	8gg\L	.	8eee\L
8D/J	.	.	8dd\J	.	8ff\J	.	8F\	-nio-	8d\	.	.	.	.	.	.	.	8D/J	.	.	8ff\J)	.	8ddd\J)
!	!	!	!	!	!	!	!	!	!	!	!	!	!	!	!	!	!	!	!LO:LB:g=original	!	!	!
=21	=21	=21	=21	=21	=21	=21	=21	=21	=21	=21	=21	=21	=21	=21	=21	=21	=21	=21	=21	=21	=21	=21
!	!	!LO:DY:t=f&colon;	!	!	!	!LO:DY:rj	!	!	!	!	!	!	!	!	!	!	!	!	!	!	!	!
4AA/	4A/	f	8dd\L	.	(8ff\L	f	8F\	-ne-	8d\	.	4r	.	4r	.	4AA/	4A/	4AA/	4r	4r	(8ff\L	.	(8ddd\L
.	.	.	8cc#X\	.	8ee\)	.	8E\	-go	8c#X\	na	.	.	.	.	.	.	.	.	.	8ee\J)	.	8ccc#X\J)
8A\L	8a\L	.	8cc#\	.	8ff'\	.	8A\L	zra-	8c#\	zra-	8a\	zra-	8ee\	zra-	4r	4r	8A\L	8cc#X\L	8ee\L	8ccc#X\L	.	8eee\L
8G\J	8a\J	.	8cc#\J	.	8ee'\J	.	8G\J	.	8c#\	-nio-	8a\	.	8ee\	.	.	.	8G\J	8cc#\J	8ee\J	8ccc#\J	.	8eee\J
!LO:TX:t=P:problem:mixed beam	!	!	!	!	!	!	!	!	!	!	!	!	!	!	!	!	!LO:TX:t=P:problem:mixed beam	!	!	!	!	!
8F\L	8a\L	.	8dd\L	.	8ff'\L	p	8F\L	-nio-	8d\	.	8a\	.	8ff\	.	4r	4r	8F\L	8dd\L	8ff\L	8ddd\L	.	8fff\L
*	*	*	*	*	*Xtuplet	*	*	*	*	*	*Xtuplet	*	*	*	*	*	*	*	*	*	*	*
!	!	!	!LO:TUP:a	!	!	!	!	!	!	!	!	!	!	!	!	!	!	!	!	!	!	!
!	!	!	!LO:SIC:v:s=24b-\L	!	!	!	!	!	!	!	!	!	!	!	!	!	!	!	!LO:TUP:a	!LO:TUP:a	!	!
!	!	!	!LO:TX:t=P:problem:klamra łukowa	!	!LO:TX:t=P:problem:klamra łukowa	!	!	!	!	!	!	!	!LO:TX:t=P:problem:klamra łukowa	!	!	!	!	!	!LO:TX:t=P:problem:klamra łukowa	!LO:TX:t=P:problem:klamra łukowa	!	!
8G\	8g\	.	24cc#\L	.	24gg\L	.	8G\J	.	8e\	.	24b-\LL	.	24gg\LL	.	.	.	8G\	16b-X\L	24gg\L	24bb-X\L	.	8eee\
!	!	!	!LO:SIC:v:s=16a\	!	!	!	!	!	!	!	!	!	!	!	!	!	!	!	!	!	!	!
.	.	.	24b-\	.	24ff\	.	.	.	.	.	24a\	.	24ff\	.	.	.	.	.	24ff\	24aa\	.	.
.	.	.	.	.	.	.	.	.	.	.	.	.	.	.	.	.	.	16g\JJ	.	.	.	.
!	!	!	!LO:SIC:v:s=24g\JJ	!	!	!	!	!	!	!	!	!	!	!	!	!	!	!	!	!	!	!
.	.	.	24a\JJ	.	24ee\JJ	.	.	.	.	.	24g\JJ	.	24ee\JJ	.	.	.	.	.	24ee\JJ	24gg\JJ	.	.
!	!	!	!	!	!	!	!LO:LB:g=original	!	!	!	!	!	!	!	!	!	!	!	!	!	!	!
!	!	!	!LO:LB:g=original	!	!	!	!LO:TX:t=P:problem:mixed beam	!	!	!	!	!	!LO:LB:g=original	!	!	!	!	!	!	!	!	!
8A\	8a\	.	8f/L	.	8dd'\L	.	8A\L	-ne-	8A\	.	8f\	-nio-	8dd\	-nio-	8AA/L	8A/L	8A\	8f/L	8dd\L	8ff\L	.	8ddd\
8AA/J	8a\J	.	8e/J	.	8cc#X\J	.	8AA/J	.	8A\	-ne-	8e\	-ne-	8cc#X\	-ne-	8AA/J	8A/J	8AA/J	8e/J	8cc#X\J	8ee\J	.	8ccc#X\J
!	!	!	!	!	!	!	!	!	!	!	!	!	!	!	!	!	!	!	!	!LO:LB:g=original	!	!
=22	=22	=22	=22	=22	=22	=22	=22	=22	=22	=22	=22	=22	=22	=22	=22	=22	=22	=22	=22	=22	=22	=22
!	!	!	!LO:TX:t=P:problem:mixed beam	!	!	!	!	!	!	!	!	!	!	!	!	!	!	!	!	!	!	!
4D\	4a\	.	8f/L	.	8dd'\L	.	4D\	-go	4A\	-go	4f\	-go	4dd\	-go	4D/	4A/	4D\	4f/	4dd\	4ff\	.	4ddd\
.	.	.	16ddd\L	.	(16ddd\L	.	.	.	.	.	.	.	.	.	.	.	.	.	.	.	.	.
.	.	.	16bb-\JJ	.	16bb-\JJ)	.	.	.	.	.	.	.	.	.	.	.	.	.	.	.	.	.
4r	4r	.	16bb-\LL	.	(16bb-\LL	f	4r	.	4r	.	4r	.	4r	.	4r	4r	4r	4r	4r	4r	.	4r
.	.	.	16aa\	.	16aa\)	.	.	.	.	.	.	.	.	.	.	.	.	.	.	.	.	.
.	.	.	16aa\	.	(16aa\	.	.	.	.	.	.	.	.	.	.	.	.	.	.	.	.	.
.	.	.	16gg\JJ	.	16gg\JJ)	.	.	.	.	.	.	.	.	.	.	.	.	.	.	.	.	.
!	!	!	!LO:TX:t=P:problem:mixed beam	!	!	!	!	!	!	!	!	!	!	!	!	!	!	!	!	!	!	!
2r	2r	.	16gg\LL	.	(16gg\LL	.	2r	.	2r	.	2r	.	2r	.	2r	2r	2r	2r	2r	2r	.	2r
.	.	.	16ff\	.	16ff\)	.	.	.	.	.	.	.	.	.	.	.	.	.	.	.	.	.
.	.	.	16aa\	.	(16aa\	.	.	.	.	.	.	.	.	.	.	.	.	.	.	.	.	.
.	.	.	16a/JJ 16f/	.	16ee\JJ)	.	.	.	.	.	.	.	.	.	.	.	.	.	.	.	.	.
.	.	.	16a/LL	.	(16ff\LL	.	.	.	.	.	.	.	.	.	.	.	.	.	.	.	.	.
.	.	.	(16g/	.	16ee\	.	.	.	.	.	.	.	.	.	.	.	.	.	.	.	.	.
.	.	.	16f/	.	16dd\	.	.	.	.	.	.	.	.	.	.	.	.	.	.	.	.	.
.	.	.	16e/JJ)	.	16cc#X\JJ)	.	.	.	.	.	.	.	.	.	.	.	.	.	.	.	.	.
=23	=23	=23	=23-	=23	=23	=23	=23	=23	=23	=23	=23	=23	=23	=23	=23	=23	=23	=23	=23	=23	=23	=23
!	!	!	!	!	!	!	!	!	!	!	!LO:TX:b:t=Votti citto Aria Solo	!	!	!	!	!	!	!	!	!	!	!
4D\	4a\	.	4f/	.	4dd\	.	1r	.	1r	.	1r	.	1r	.	4D/	4d\	4D\	4f/	4dd\	4ff\	.	4ddd\
8DD/L	8d\L	.	8d/L	.	8d/L	.	.	.	.	.	.	.	.	.	8D/L	8D/L	8DD/L	8d/L	8d/L	8d/L	.	8dd\L
8DD/J	8d\J	.	8d/J	.	8d/J	.	.	.	.	.	.	.	.	.	8D/J	8D/J	8DD/J	8d/J	8d/J	8d/J	.	8dd\J
4DD/	4d\	.	4d/	.	4d/	.	.	.	.	.	.	.	.	.	4D/	4D/	4DD/	4d/	4d/	4d/	.	4dd\
!	!	!	!	!	!	!	!	!	!	!	!	!	!	!	!	!	!	!	!	!LO:TX:b:t=Volti Citto	!	!
!LO:TX:b:t=Volti adagio	!LO:TX:b:t=Volti Citto Aria IIItia	!	!LO:TX:b:t=Aria\nAdagio.	!	!	!	!	!	!	!	!	!	!	!	!	!	!	!	!	!LO:TX:b:t=Aria III	!	!LO:TX:b:t=Volti Citto.
4r	4r	.	4r	.	4r	.	.	.	.	.	.	.	.	.	4r	4r	4r	4r	4r	4r	.	4r
==	==	==	==	==	==	==	==	==	==	==	==	==	==	==	==	==	==	==	==	==	==	==
*-	*-	*-	*-	*-	*-	*-	*-	*-	*-	*-	*-	*-	*-	*-	*-	*-	*-	*-	*-	*-	*-	*-
!!!system-decoration: [(g1)][(g2)][(g3)][(g4)]s15
!!!RDF**kern: | = vertical stroke
!!!ENC: Andrzej Borzym
!!!END: 2020-11-10
!!!EED: Andrzej Borzym
!!!EEV: 2022-04-23
